X:1
T:Title
%%score { ( 1 4 ) | ( 2 3 ) }
L:1/8
Q:1/4=100
M:6/8
K:D
V:1 treble nm="Grand Piano"
V:4 treble 
V:2 bass 
V:3 bass 
V:1
 [FA]2 [GB] [FA]2 [EG] | [DF]2 [EG] [FA][EG][DF] | [CE]2 [DF] [EG][DF][CE] | F3 .A3 | %4
w: J.~W.~Lehman * * *||||
 B2 [Ac] [Bd]2 [GB] | [FA]2 [GB] [FA][EG]F | E2 A BcB | [A,A]6 | [Fd]3 [Ad]3 | [Bd]c[DGB] [DFA]3 | %10
w: ||||||
 [CGB]3 [CGB]3 | [GB][FA][A,EG] [A,DF]3 | D2 F E2 G | F2 [Fd] [Ec]2 [B,FB] | [CEA]3 [B,D^G]3 | %15
w: |||||
 [A,A]3- [A,A]-[A,-A-e]/[A,Ac-]/c/A/ | [Gd]3 [Ad]3 | [Bd]c[DGB] [DFA]3 | [CGB]3 [CGB]3 | %19
w: ||||
 [GB][FA][A,EG] [A,DF]3 | D2 F E2 G | F2 [DFA] G-[Gc]d | d3 [Ec]3 | [Fd]6 |] %24
w: |||||
V:2
 [D,D]2 [D,D] [D,D]2 [D,A,] | [D,A,]2 [D,A,] [D,A,][D,A,][D,A,] | %2
 [A,,A,]2 [A,,A,] [A,,A,][A,,A,][A,,A,] | [A,D]3 z3 | [G,DG]2 [G,D][K:bass] [G,D]2 [G,D] | %5
 [D,D]2 [D,D] [D,A,][D,A,][D,A,D] | [E,A,C]2 [E,A,C] [E,^G,D][E,F,E][E,G,D] | z3 .G3 | %8
 [D,A,]3 [F,D]3 | .[G,D]3[K:bass] z3 | A,3 A,3 | A,,B,,C, D,3 | D,2 F, E,2 G, | %13
 F,2 [B,,B,] [C,^A,]2 D, | E,3 E,3 | z3 .G3 | [D,A,]3 [F,D]3 | .[G,D]3[K:bass] z3 | A,3 A,3 | %19
 A,,B,,C, D,3 | D,2 F, E,2 G, | F,2 D, z[K:treble] C[^G,B,=F] | [A,F]3[K:bass] [A,,A,]3 | %23
 [D,A,]6 |] %24
V:3
 x6 | x6 | x6 | D,3- [D,DF]3 | x3[K:bass] x3 | x6 | x6 | A,,6 | x6 | z A[K:bass]G, D,3 | x6 | x6 | %12
 x6 | x6 | x6 | A,,6 | x6 | z A[K:bass]G, D,3 | x6 | x6 | x6 | z3 .G,3[K:treble] | x3[K:bass] x3 | %23
 x6 |] %24
V:4
 x6 | x6 | x6 | x6 | x6 | x6 | x6 | C3 z3 | x6 | x6 | x6 | .C3 z3 | x6 | x6 | x6 | C3 z3 | x6 | %17
 x6 | x6 | .C3 z3 | x6 | z3 .[DB]3 | x6 | x6 |] %24

